X:1
T:Vedermi fra
T:Vedermi fra
T:Vittorio Loreto
T:Source : Arie a voce sola del Cavalier Loreto Vittorii---Venetia---A.Vincenti---1649. Editor : André Vierendeels (14/10/15).
T:Notes  Original clefs : C1, F4 Figures in BC are notated in original Ms. 
C:Vittorius Loreto
%%score 1 2
L:1/8
Q:1/4=100
M:6/4
K:F
V:1 treble nm="Soprano" snm="S"
V:2 bass nm="BC" snm="BC"
V:1
 z4 D2 G3 A BG | d3 c BA BA BG AF | G2 G2 d/_e/f e4 d2 | B2 cA Bc d6 | z4 B2 f3 g _ef | %5
w: Ve- der- * * *|* mi _ _ fra _ _ _ ca- *|te- ne, è _ _ non ha-|ver pie- * * * ta,|go- der _ _ _|
w: Ve- der- * * *|* mi _ _ Og _ gnor _ pe- *|na- re, è _ _ non mi|dar mer- * * * ce,|ma sol per trop _|
 d4 c2 BA BG cB | A2 A2 A2 =B4 B2 | c4 f4 _e3 d | c4 c2 g3 a fg |"^b" _e4 d2 cB cA dc | %10
w: _ del- le _ _ _ mi _|e pe- ne'oh Dio, oh|Dio, che cru- di-|ta, go- der _ _ _|_ del- le _ _ _ mi- *|
w: po'a- ma- * * * * * *|* ren, ne- gar,- ne-|gar- mi'a- mor è|fe, ma sol per trop- *|po'a- ma- * * * * * *|
 =B2 B2 B2 c4 d2 | _e6 B2 B3 A |[M:3/4] G6 ::[M:4/4] z d A3 ABG | A2 A2 z2 AB | G2 GF ^F2 F2 | %16
w: e pe- ne'oh Dio, oh|Dio che cru- di-|ta!|E pur il sof- frei'A-|mo- re è pur|fer- mo'il mio co- re|
w: * re, ne- ga, ne-|ga- mi'a- mor è|fe!||||
 z ABc d4- | d/ _e/f/e/ d/c/B/A/ G2 e2 | _e/f/g/f/ e/d/c/B/ AF B2- | B2 A2 B4 | %20
w: di non cre- giar|_ _ _ _ _ _ _ _ _ _|* * * * * * * * * pen- sie-|* * ro,|
w: ||||
[M:6/4] z2 d2 d2 d2 c3 d | B2 B2 A2 c4 B2 | A2 DA Bc df ed cB | ^c2 A2 d2 d4 c2 | %24
w: e mi- se- ri- a'in|fi- ni- t'a- mar da|ve- ro, a- mar _ _ _ _ _ _ _|_ _ da ve- *|
w: ||||
 d2 f2 f2 f2 f3 _e | _e2 e2 g2 e4 d2 | d2 G2 g2 _ed ec fe | d3 c BA BA BG cB | A3 f _ed e3 f ed | %29
w: ro, è mi- se- ri- a'in-|fi- ni- t'a- mar da|ve- ro, a- mar _ _ _ _ _|_ _ _ _ _ _ _ _ _ _||
w: |||||
 _ed cB AG ^F4 B2 | B2 A4 !fermata!G6 :| %31
w: * * * * * * * da|ve- * ro.|
w: ||
V:2
 G,,6 G,6 | ^F,6 G,4 =F,2 |"^6""^b""^#" _E,4 =B,,2 C,2 D,4 |"^7  6" _E,6 D,3 E, D,C, | %4
"^6" B,,6 A,,6 |"^6""^b" B,,2 B,2 A,2 G,2 E,4 |"^-natural" F,6 G,6 | %7
"^-natural""^4 3" _A,4 F,2 F,2 G,4 |"^6" C,6 =B,,6 |"^b" C,4 B,,2 _A,,6 | %10
"^-natural" G,,2 G,2 F,2 _E,4 D,2 |"^4  3" C,4 G,,4 D,4 |[M:3/4] G,,6 ::[M:4/4]"^#" D,8- | D,8- | %15
 D,8- | D,2 C,2 B,,4- | B,,4 _E,4- | E,4 F,2 D,_E, |"^4    3" F,4 B,,4 |[M:6/4] B,6 ^F,6 | %21
 G,6 C,6 |"^#""^-natural" D,6 D,6 |"^#""^4     3" A,,2 F,,2 G,,2 A,,6 | D,6 =B,,6 |"^b" C,6 F,,6 | %26
"^-natural""^6" G,,6 C,2 A,,4 | B,,4 ^F,2 G,2 E,4 |"^-natural" F,2 _E,2 D,2 C,2 =B,,4 | %29
"^b""^#" C,2 G,,4 D,2 B,,2 C,2 |"^4   3" D,6 !fermata!G,,6 :| %31

